assets/images/icon/suv.svg

<svg width="34" height="13" viewBox="0 0 34 13" fill="none" xmlns="http://www.w3.org/2000/svg">
<g clip-path="url(#clip0_669_1825)">
<path d="M6.14339 7.42407C4.5978 7.42407 3.36141 8.66312 3.36141 10.212C3.36141 11.7609 4.5978 13 6.14339 13C7.68898 13 8.92536 11.7609 8.92536 10.212C8.92536 8.66312 7.68855 7.42407 6.14339 7.42407ZM6.14339 11.9931C5.13869 11.9931 4.32756 11.1798 4.32756 10.1734C4.32756 9.16697 5.13911 8.35367 6.14339 8.35367C7.14766 8.35367 7.95921 9.16697 7.95921 10.1734C7.95921 11.2189 7.14766 11.9931 6.14339 11.9931Z" fill="black"/>
<path d="M6.14339 8.77942C5.37081 8.77942 4.7524 9.39873 4.7524 10.1734C4.7524 10.9481 5.37038 11.5674 6.14339 11.5674C6.9164 11.5674 7.53438 10.9481 7.53438 10.1734C7.57292 9.43778 6.91597 8.77942 6.14339 8.77942Z" fill="black"/>
<path d="M33.4976 6.53355L33.4591 4.94601L31.8364 1.26751L32.1456 0.919011L32.0681 0.454635C29.132 0.0675126 15.1454 -0.31961 14.2182 0.416007C12.3639 1.88724 10.5866 3.62971 10.5866 3.62971L1.77728 4.79151L0.617982 5.72068L0 7.03698L0.347747 7.65629L0.0385444 7.88848L0.46338 10.0567L2.89761 10.4052C2.85906 10.173 2.82052 9.90177 2.82052 9.66958C2.82052 7.84985 4.32714 6.33957 6.14339 6.33957C7.95964 6.33957 9.46626 7.84943 9.46626 9.66958C9.46626 10.0181 9.38917 10.4052 9.31166 10.7151H24.6117C24.6117 10.6764 24.6117 10.5988 24.5731 10.5601C24.4942 10.2831 24.4551 9.99627 24.4571 9.70821C24.4571 7.84985 25.9637 6.33957 27.8185 6.33957C29.6733 6.33957 31.1799 7.84943 31.1799 9.70821V10.0953L33.8073 9.32109L34.0004 7.26875L33.4976 6.53355ZM1.93188 7.03698L0.850095 7.34685L1.46808 6.03055L2.58841 5.6048L3.39996 6.10823L1.93188 7.03698ZM4.79095 5.52712C4.79095 5.52712 6.02733 5.14 10.7408 4.86876C12.7887 2.93273 14.1407 1.61643 14.7977 1.15162C16.0341 0.764502 19.7818 0.919436 19.7818 0.919436L19.5111 4.48164C20.0135 4.44301 20.5543 4.44301 21.0567 4.40438L21.2884 0.880808H26.5431L27.3932 4.21082H28.1273L27.2772 0.91986L30.0977 1.07479L31.3341 3.39795L31.1409 4.2885C31.1409 4.2885 30.6 4.36576 29.8275 4.44344C29.0159 4.52069 27.8956 4.59837 26.5436 4.637C26.5436 4.637 14.4118 5.02412 11.3596 5.25631C7.92067 5.52712 4.79095 5.52712 4.79095 5.52712Z" fill="black"/>
<path d="M27.8185 7.42407C26.2729 7.42407 25.0365 8.66312 25.0365 10.212C25.0365 11.7609 26.2729 13 27.8185 13C29.3641 13 30.6005 11.7609 30.6005 10.212C30.6005 8.66312 29.3637 7.42407 27.8185 7.42407ZM27.8185 11.9931C26.8138 11.9931 26.0027 11.1798 26.0027 10.1734C26.0027 9.16697 26.8142 8.35367 27.8185 8.35367C28.8228 8.35367 29.6343 9.16697 29.6343 10.1734C29.6343 11.2189 28.8228 11.9931 27.8185 11.9931Z" fill="black"/>
<path d="M27.8185 8.77942C27.0459 8.77942 26.4275 9.39873 26.4275 10.1734C26.4275 10.9481 27.0455 11.5674 27.8185 11.5674C28.5915 11.5674 29.2095 10.9481 29.2095 10.1734C29.248 9.43778 28.5911 8.77942 27.8185 8.77942Z" fill="black"/>
</g>
<defs>
<clipPath id="clip0_669_1825">
<rect width="34" height="13" fill="white"/>
</clipPath>
</defs>
</svg>

<svg width="34" height="13" fill="currentColor" xmlns="http://www.w3.org/2000/svg"><g clip-path="url(#a)" fill="#000"><path d="M6.143 7.424a2.773 2.773 0 0 0-2.782 2.788A2.773 2.773 0 0 0 6.143 13a2.773 2.773 0 0 0 2.782-2.788 2.774 2.774 0 0 0-2.782-2.788zm0 4.57a1.816 1.816 0 0 1-1.815-1.82 1.816 1.816 0 1 1 3.631 0c0 1.045-.811 1.82-1.816 1.82z"/><path d="M6.143 8.78c-.772 0-1.39.619-1.39 1.393 0 .775.617 1.394 1.39 1.394.773 0 1.391-.619 1.391-1.394.039-.735-.618-1.394-1.39-1.394z"/><path d="m33.498 6.534-.039-1.588-1.623-3.678.31-.349-.078-.464C29.132.068 15.145-.32 14.218.416c-1.854 1.471-3.631 3.214-3.631 3.214l-8.81 1.162-1.159.929L0 7.037l.348.62-.31.231.425 2.169 2.435.348a4.764 4.764 0 0 1-.077-.735c0-1.82 1.506-3.33 3.322-3.33 1.817 0 3.323 1.51 3.323 3.33 0 .348-.077.735-.154 1.045h15.3c0-.039 0-.116-.039-.155a3.033 3.033 0 0 1-.116-.852 3.367 3.367 0 0 1 3.361-3.368 3.367 3.367 0 0 1 3.362 3.368v.387l2.627-.774L34 7.27l-.502-.735zm-31.566.503-1.082.31.618-1.316 1.12-.426.812.503-1.468.929zm2.859-1.51s1.236-.387 5.95-.658c2.048-1.936 3.4-3.253 4.057-3.717 1.236-.387 4.984-.233 4.984-.233l-.27 3.563c.502-.039 1.042-.039 1.545-.078l.231-3.523h5.255l.85 3.33h.734L27.277.92l2.82.155 1.237 2.323-.193.89s-.541.078-1.313.155c-.812.078-1.932.155-3.284.194 0 0-12.132.387-15.184.62a94.5 94.5 0 0 1-6.569.27z"/><path d="M27.819 7.424a2.773 2.773 0 0 0-2.782 2.788A2.773 2.773 0 0 0 27.819 13a2.773 2.773 0 0 0 2.782-2.788 2.774 2.774 0 0 0-2.782-2.788zm0 4.57a1.816 1.816 0 0 1-1.816-1.82 1.816 1.816 0 1 1 3.631 0c0 1.045-.811 1.82-1.816 1.82z"/><path d="M27.819 8.78c-.773 0-1.392.619-1.392 1.393 0 .775.619 1.394 1.392 1.394.773 0 1.39-.619 1.39-1.394.039-.735-.618-1.394-1.39-1.394z"/></g><defs><clipPath id="a"><path d="M0 0h34v13H0z"/></clipPath></defs></svg>
